X: 1
T: Conlon's
M: 4/4
L: 1/8
R: reel
K: Dmaj
|: d2cd AFDd | cdAF DFAF | EB,B,/B,/B, GFED | CDEF GABc |
dzcd AFDd |cdAF DFAF |E2gf edcB |1 AFGE D3c :|2 AFGE D3a ||
^gafd Aa^ga | fdAa ^gafd| eBB/B/B bagf | edcB A2a^g- |
^gafd Aa^ga | fdAa ^gafd| eBB/B/B cBAF | AGEC D3a |
^gafd Aa^ga | fdAa ^gafd| eBB/B/B bagf | edcB ABc/B/A |
d2cd  AFDd | cdAF DFAF | G,3B,   A,3G | FDEC D4  |
